icon-themes/elementary_svg/cmd/sc_heading4parastyle.svg

<svg viewBox="0 0 16 16" xmlns="http://www.w3.org/2000/svg" xmlns:xlink="http://www.w3.org/1999/xlink"><linearGradient id="a" gradientUnits="userSpaceOnUse" x1="6.126" x2="7.147" y2="15.671"><stop offset="0" stop-color="#737373"/><stop offset=".262" stop-color="#636363"/><stop offset=".705" stop-color="#4b4b4b"/><stop offset="1" stop-color="#3f3f3f"/></linearGradient><path d="m11.933 14.22h-2.688v-5.49h-5.035v5.49h-2.7v-12.717h2.7v4.984h5.035v-4.984h2.688z" fill="url(#a)" stroke="#000" stroke-linejoin="round" stroke-opacity=".49" stroke-width=".962" transform="scale(.9794 1.02103)"/><path d="m12.135 4.182a1.448 1.448 0 0 0 -.338.38l-3.39 5.547v3.697a1.448 1.448 0 0 0 .945.353h2.136v.486a1.448 1.448 0 0 0 .647 1.206z" fill="#fff" fill-opacity=".804"/><path d="m15.682 12.713h-1.01v1.934h-1.735v-1.934h-3.585v-1.373l3.682-6.023h1.637v5.865h1.012zm-2.745-1.53v-1.585q0-.397.028-1.15.03-.753.046-.874h-.045q-.212.523-.51 1.02l-1.54 2.586h2.022z" fill="#ffc27d" stroke="#f37329" stroke-linejoin="round" stroke-width=".67"/></svg>

<svg xmlns="http://www.w3.org/2000/svg" xmlns:xlink="http://www.w3.org/1999/xlink" viewBox="0 0 16 16"><defs><linearGradient id="a"><stop offset="0" stop-color="#737373"/><stop offset=".262" stop-color="#636363"/><stop offset=".705" stop-color="#4b4b4b"/><stop offset="1" stop-color="#3f3f3f"/></linearGradient><linearGradient xlink:href="#a" id="b" x1="6.126" x2="7.147" y2="15.671" gradientUnits="userSpaceOnUse"/></defs><path d="M11.933 14.22H9.245V8.73H4.21v5.49H1.51V1.503H4.21v4.984h5.035V1.503h2.688z" fill="url(#b)" stroke="#000" stroke-linejoin="round" stroke-width=".962" transform="scale(.9794 1.02103)" stroke-opacity=".49"/><path d="M12.135 4.182a1.448 1.448 0 0 0-.338.38l-3.39 5.547v3.697a1.448 1.448 0 0 0 .945.353h2.136v.486a1.448 1.448 0 0 0 .647 1.206V4.182z" fill="#fff" fill-opacity=".804"/><path d="M15.682 12.713h-1.01v1.934h-1.735v-1.934H9.352V11.34l3.682-6.023h1.637v5.865h1.012zm-2.745-1.53V9.598q0-.397.028-1.15.03-.753.046-.874h-.045q-.212.523-.51 1.02l-1.54 2.586h2.022z" fill="#ffc27d" stroke="#f37329" stroke-width=".67" stroke-linejoin="round"/></svg>
